dist/media/images/star.svg

<svg width="33" height="33" viewBox="0 0 33 33" fill="none" xmlns="http://www.w3.org/2000/svg">
<g filter="url(#filter0_d_1_1008)">
<path d="M14.5978 1.20235C15.2511 0.176312 16.7489 0.176315 17.4022 1.20235L19.5293 4.54322C19.9091 5.13977 20.6248 5.4307 21.3131 5.26836L25.3185 4.32365C26.5413 4.03525 27.6297 5.15526 27.3064 6.36925L26.3829 9.83786C26.188 10.57 26.5127 11.3413 27.1726 11.7134L30.4327 13.5521C31.5603 14.1881 31.5603 15.8119 30.4327 16.4479L27.1726 18.2866C26.5127 18.6587 26.188 19.43 26.3829 20.1621L27.3064 23.6308C27.6297 24.8447 26.5413 25.9647 25.3185 25.6764L21.3131 24.7316C20.6248 24.5693 19.9091 24.8602 19.5293 25.4568L17.4022 28.7977C16.7489 29.8237 15.2511 29.8237 14.5978 28.7977L12.4707 25.4568C12.0909 24.8602 11.3752 24.5693 10.6869 24.7316L6.68147 25.6764C5.45874 25.9647 4.37031 24.8447 4.69355 23.6308L5.6171 20.1621C5.81204 19.43 5.48727 18.6587 4.82737 18.2866L1.56725 16.4479C0.439651 15.8119 0.439651 14.1881 1.56725 13.5521L4.82737 11.7134C5.48727 11.3413 5.81204 10.57 5.6171 9.83786L4.69355 6.36924C4.37031 5.15526 5.45874 4.03525 6.68147 4.32365L10.6869 5.26836C11.3752 5.4307 12.0909 5.13977 12.4707 4.54322L14.5978 1.20235Z" fill="white"/>
<path d="M14.9613 1.4338C15.4452 0.67378 16.5548 0.67378 17.0387 1.43381L19.1658 4.77468C19.644 5.52589 20.5453 5.89224 21.412 5.68781L25.4175 4.7431C26.3232 4.52948 27.1294 5.35911 26.89 6.25836L25.9664 9.72697C25.721 10.6489 26.1299 11.6202 26.9609 12.0888L30.221 13.9275C31.0563 14.3986 31.0563 15.6014 30.221 16.0725L26.9609 17.9112C26.1299 18.3798 25.721 19.3511 25.9664 20.273L26.89 23.7416C27.1294 24.6409 26.3232 25.4705 25.4175 25.2569L21.412 24.3122C20.5453 24.1078 19.644 24.4741 19.1658 25.2253L17.0387 28.5662C16.5548 29.3262 15.4452 29.3262 14.9613 28.5662L12.8342 25.2253C12.356 24.4741 11.4547 24.1078 10.588 24.3122L6.58254 25.2569C5.67681 25.4705 4.87057 24.6409 5.11 23.7416L6.03356 20.273C6.27903 19.3511 5.87007 18.3798 5.03908 17.9112L1.77896 16.0725C0.943701 15.6014 0.943701 14.3986 1.77896 13.9275L5.03908 12.0888C5.87007 11.6202 6.27903 10.6489 6.03356 9.72697L5.11 6.25836C4.87057 5.35911 5.67681 4.52948 6.58254 4.7431L10.588 5.68781C11.4547 5.89224 12.356 5.52589 12.8342 4.77468L14.9613 1.4338Z" stroke="#19154A" stroke-width="0.861929"/>
</g>
<defs>
<filter id="filter0_d_1_1008" x="0.72168" y="0.432861" width="31.9111" height="31.9048" filterUnits="userSpaceOnUse" color-interpolation-filters="sRGB">
<feFlood flood-opacity="0" result="BackgroundImageFix"/>
<feColorMatrix in="SourceAlpha" type="matrix" values="0 0 0 0 0 0 0 0 0 0 0 0 0 0 0 0 0 0 127 0" result="hardAlpha"/>
<feOffset dx="1.35446" dy="2.77049"/>
<feComposite in2="hardAlpha" operator="out"/>
<feColorMatrix type="matrix" values="0 0 0 0 0.0980392 0 0 0 0 0.0823529 0 0 0 0 0.290196 0 0 0 1 0"/>
<feBlend mode="normal" in2="BackgroundImageFix" result="effect1_dropShadow_1_1008"/>
<feBlend mode="normal" in="SourceGraphic" in2="effect1_dropShadow_1_1008" result="shape"/>
</filter>
</defs>
</svg>

<svg width="33" height="33" fill="none" xmlns="http://www.w3.org/2000/svg"><g filter="url(#filter0_d_1_1008)"><path d="M14.598 1.202a1.662 1.662 0 012.804 0l2.127 3.341c.38.597 1.096.888 1.784.725l4.006-.944a1.662 1.662 0 011.987 2.045l-.923 3.469c-.195.732.13 1.503.79 1.875l3.26 1.84c1.127.635 1.127 2.259 0 2.895l-3.26 1.839a1.662 1.662 0 00-.79 1.875l.923 3.469a1.662 1.662 0 01-1.988 2.045l-4.005-.944a1.662 1.662 0 00-1.784.725l-2.127 3.34a1.662 1.662 0 01-2.804 0l-2.127-3.34a1.662 1.662 0 00-1.784-.725l-4.006.944a1.662 1.662 0 01-1.987-2.045l.923-3.469a1.662 1.662 0 00-.79-1.875l-3.26-1.84c-1.127-.635-1.127-2.259 0-2.895l3.26-1.839c.66-.372.985-1.143.79-1.875l-.923-3.469A1.662 1.662 0 016.68 4.324l4.006.944a1.662 1.662 0 001.784-.725l2.127-3.34z" fill="#fff"/><path d="M14.961 1.434a1.231 1.231 0 012.078 0l2.127 3.34a2.093 2.093 0 002.246.914l4.006-.945a1.231 1.231 0 011.472 1.515l-.924 3.469a2.093 2.093 0 00.995 2.362l3.26 1.838a1.231 1.231 0 010 2.146l-3.26 1.838a2.093 2.093 0 00-.995 2.362l.924 3.469a1.231 1.231 0 01-1.473 1.515l-4.005-.945a2.093 2.093 0 00-2.246.913l-2.127 3.341c-.484.76-1.594.76-2.078 0l-2.127-3.34a2.093 2.093 0 00-2.246-.914l-4.005.945a1.231 1.231 0 01-1.473-1.515l.924-3.469a2.093 2.093 0 00-.995-2.362l-3.26-1.838a1.231 1.231 0 010-2.146l3.26-1.838a2.093 2.093 0 00.995-2.362L5.11 6.258a1.231 1.231 0 011.473-1.515l4.005.945a2.093 2.093 0 002.246-.913l2.127-3.341z" stroke="#19154A" stroke-width=".862"/></g><defs><filter id="filter0_d_1_1008" x=".722" y=".433" width="31.911" height="31.905" filterUnits="userSpaceOnUse" color-interpolation-filters="sRGB"><feFlood flood-opacity="0" result="BackgroundImageFix"/><feColorMatrix in="SourceAlpha" values="0 0 0 0 0 0 0 0 0 0 0 0 0 0 0 0 0 0 127 0" result="hardAlpha"/><feOffset dx="1.354" dy="2.77"/><feComposite in2="hardAlpha" operator="out"/><feColorMatrix values="0 0 0 0 0.0980392 0 0 0 0 0.0823529 0 0 0 0 0.290196 0 0 0 1 0"/><feBlend in2="BackgroundImageFix" result="effect1_dropShadow_1_1008"/><feBlend in="SourceGraphic" in2="effect1_dropShadow_1_1008" result="shape"/></filter></defs></svg>
